css/elements/social/Instagram.svg

<svg fill="none" height="437" viewBox="0 0 436 437" width="436" xmlns="http://www.w3.org/2000/svg" xmlns:xlink="http://www.w3.org/1999/xlink"><clipPath id="a"><path d="m0 0h435.8v436.29h-435.8z"/></clipPath><g clip-path="url(#a)" fill="#ecf2fb"><path d="m217.94 165.51c-10.389 0-20.544 3.081-29.182 8.853-8.637 5.773-15.369 13.977-19.343 23.575-3.974 9.599-5.013 20.161-2.984 30.349 2.029 10.189 7.034 19.547 14.382 26.891s16.709 12.343 26.899 14.367c10.19 2.023 20.751.978 30.347-3.001 9.597-3.98 17.797-10.716 23.564-19.357 5.768-8.641 8.843-18.798 8.837-29.187-.013-13.922-5.552-27.27-15.399-37.112-9.848-9.842-23.199-15.373-37.121-15.378z"/><path d="m279.72 84.1899h-123.56c-19.104.0239-37.419 7.6235-50.928 21.1321-13.5085 13.509-21.1082 31.824-21.132 50.928v123.65c.0079 19.113 7.6012 37.441 21.112 50.959 13.511 13.519 31.835 21.122 50.948 21.141h123.65c19.105-.021 37.421-7.62 50.931-21.129 13.509-13.51 21.108-31.826 21.129-50.931v-123.69c-.029-19.118-7.643-37.444-21.17-50.954-13.527-13.5099-31.862-21.1008-50.98-21.1061zm-61.78 214.1401c-15.882 0-31.407-4.71-44.612-13.533-13.206-8.824-23.498-21.365-29.576-36.038-6.077-14.672-7.667-30.818-4.569-46.395 3.098-15.576 10.746-29.885 21.976-41.115s25.539-18.878 41.115-21.976c15.577-3.099 31.723-1.508 46.395 4.569 14.673 6.078 27.214 16.37 36.038 29.576 8.823 13.205 13.533 28.73 13.533 44.612.004 10.546-2.07 20.99-6.104 30.734-4.035 9.744-9.949 18.598-17.407 26.055-7.457 7.458-16.311 13.372-26.055 17.406-9.744 4.035-20.188 6.109-30.734 6.105zm88.27-148.47c-3.92.006-7.753-1.151-11.015-3.323-3.263-2.172-5.808-5.263-7.314-8.882s-1.905-7.603-1.147-11.449c.758-3.845 2.64-7.38 5.406-10.156 2.767-2.777 6.295-4.67 10.138-5.442s7.828-.387 11.452 1.106 6.724 4.028 8.908 7.282c2.184 3.255 3.354 7.084 3.362 11.004-.005 5.255-2.095 10.293-5.811 14.009s-8.754 5.806-14.009 5.811z"/><path d="m435.51 102c-.015-7.861-.728-15.7051-2.13-23.44-1.76-9.44-4.36-18.61-8.8-27.14-4.721-8.9767-10.852-17.1372-18.16-24.17-11.023-10.8523-24.686-18.64202-39.64-22.6-13.71-3.72-27.78-4.46-41.86-4.46-.1-.1-.1-.1-.1-.19h-213.77v.19c-8 .18-16 .09-24 1.11-8.7431.87244-17.3507 2.78599-25.64 5.7-12.9023 4.7477-24.5585 12.3624-34.09 22.27-10.8619 11.1051-18.67684 24.8234-22.69 39.83-3.63 13.61-4.44 27.5-4.44 41.49l-.19 214.6c.28 9.73.37 19.45 2 29.09 1.75 10.19 4.16 20.1 8.89 29.36 6.2661 12.407 15.2201 23.26 26.21 31.77 7.8612 6.211 16.7253 11.033 26.21 14.26 14 4.54 28.44 6.3 43.16 6.3 9.17.09 18.25.28 27.42.28 66.41-.28 132.91.46 199.32-.37 8.77-.183 17.508-1.113 26.12-2.78 16.302-2.883 31.474-10.26 43.81-21.3 14.63-13.06 24.45-29 28.9-48.26 2.87-12.6 3.61-25.38 3.79-38.16v-2.59c.05-1.12-.32-217.94-.32-220.79zm-55.95 177.81c-.024 26.448-10.541 51.806-29.242 70.508-18.702 18.701-44.06 29.218-70.508 29.242h-123.65c-26.448-.024-51.806-10.541-70.5076-29.242-18.7016-18.702-29.2186-44.06-29.2424-70.508v-123.56c.0238-26.448 10.5408-51.806 29.2424-70.5076s44.0596-29.2186 70.5076-29.2424h123.65c26.447.0265 51.804 10.5443 70.505 29.2453 18.701 18.7007 29.219 44.0577 29.245 70.5047z"/></g></svg>

<svg width="436" height="437" viewBox="0 0 436 437" fill="none" xmlns="http://www.w3.org/2000/svg">
<g clip-path="url(#clip0)">
<path d="M217.94 165.51C207.551 165.51 197.396 168.591 188.758 174.363C180.121 180.136 173.389 188.34 169.415 197.938C165.441 207.537 164.402 218.099 166.431 228.287C168.46 238.476 173.465 247.834 180.813 255.178C188.161 262.522 197.522 267.521 207.712 269.545C217.902 271.568 228.463 270.523 238.059 266.544C247.656 262.564 255.856 255.828 261.623 247.187C267.391 238.546 270.466 228.389 270.46 218C270.447 204.078 264.908 190.73 255.061 180.888C245.213 171.046 231.862 165.515 217.94 165.51Z" fill="#ECF2FB"/>
<path d="M279.72 84.1899H156.16C137.056 84.2138 118.741 91.8134 105.232 105.322C91.7235 118.831 84.1238 137.146 84.1 156.25V279.9C84.1079 299.013 91.7012 317.341 105.212 330.859C118.723 344.378 137.047 351.981 156.16 352H279.81C298.915 351.979 317.231 344.38 330.741 330.871C344.25 317.361 351.849 299.045 351.87 279.94V156.25C351.841 137.132 344.227 118.806 330.7 105.296C317.173 91.7861 298.838 84.1952 279.72 84.1899V84.1899ZM217.94 298.33C202.058 298.33 186.533 293.62 173.328 284.797C160.122 275.973 149.83 263.432 143.752 248.759C137.675 234.087 136.085 217.941 139.183 202.364C142.281 186.788 149.929 172.479 161.159 161.249C172.389 150.019 186.698 142.371 202.274 139.273C217.851 136.174 233.997 137.765 248.669 143.842C263.342 149.92 275.883 160.212 284.707 173.418C293.53 186.623 298.24 202.148 298.24 218.03C298.244 228.576 296.17 239.02 292.136 248.764C288.101 258.508 282.187 267.362 274.729 274.819C267.272 282.277 258.418 288.191 248.674 292.225C238.93 296.26 228.486 298.334 217.94 298.33V298.33ZM306.21 149.86C302.29 149.866 298.457 148.709 295.195 146.537C291.932 144.365 289.387 141.274 287.881 137.655C286.375 134.036 285.976 130.052 286.734 126.206C287.492 122.361 289.374 118.826 292.14 116.05C294.907 113.273 298.435 111.38 302.278 110.608C306.121 109.836 310.106 110.221 313.73 111.714C317.354 113.207 320.454 115.742 322.638 118.996C324.822 122.251 325.992 126.08 326 130C325.995 135.255 323.905 140.293 320.189 144.009C316.473 147.725 311.435 149.815 306.18 149.82L306.21 149.86Z" fill="#ECF2FB"/>
<path d="M435.51 102C435.495 94.139 434.782 86.2949 433.38 78.56C431.62 69.12 429.02 59.95 424.58 51.42C419.859 42.4433 413.728 34.2828 406.42 27.25C395.397 16.3977 381.734 8.60798 366.78 4.65C353.07 0.93 339 0.19 324.92 0.19C324.82 0.09 324.82 0.09 324.82 0H111.05V0.19C103.05 0.37 95.05 0.28 87.05 1.3C78.3069 2.17244 69.6993 4.08599 61.41 7C48.5077 11.7477 36.8515 19.3624 27.32 29.27C16.4581 40.3751 8.64316 54.0934 4.63 69.1C1 82.71 0.19 96.6 0.19 110.59L0 325.19C0.28 334.92 0.37 344.64 2 354.28C3.75 364.47 6.16 374.38 10.89 383.64C17.1561 396.047 26.1101 406.9 37.1 415.41C44.9612 421.621 53.8253 426.443 63.31 429.67C77.31 434.21 91.75 435.97 106.47 435.97C115.64 436.06 124.72 436.25 133.89 436.25C200.3 435.97 266.8 436.71 333.21 435.88C341.98 435.697 350.718 434.767 359.33 433.1C375.632 430.217 390.804 422.84 403.14 411.8C417.77 398.74 427.59 382.8 432.04 363.54C434.91 350.94 435.65 338.16 435.83 325.38V322.79C435.88 321.67 435.51 104.85 435.51 102ZM379.56 279.81C379.536 306.258 369.019 331.616 350.318 350.318C331.616 369.019 306.258 379.536 279.81 379.56H156.16C129.712 379.536 104.354 369.019 85.6524 350.318C66.9508 331.616 56.4338 306.258 56.41 279.81V156.25C56.4338 129.802 66.9508 104.444 85.6524 85.7424C104.354 67.0408 129.712 56.5238 156.16 56.5H279.81C306.257 56.5265 331.614 67.0443 350.315 85.7453C369.016 104.446 379.534 129.803 379.56 156.25V279.81Z" fill="#ECF2FB"/>
</g>
<defs>
<clipPath id="clip0">
<rect width="435.8" height="436.29" fill="white"/>
</clipPath>
</defs>
</svg>
